X: 221
T:Bo Mhin Na Toitean
T:BÃ³ MhÃ­n Na Toitean
T:John Doherty's
F:http://blackrosetheband.googlepages.com/ABCTUNES.ABC May 2009
M:4/4
L:1/8
R:strathspey
K:Ador
|:"Am"A2 e2 e2 d-B|"D"d2 ef "G"ge a2|"Am"A2 e2 e2 d-B|"G"eg ed BA GB|
"Am"A2 e2 e2 d-B|"G"d2 ef ge a2|"Em(C)"eg ed "(G)"(e/f/g) e-d|"Am"B2 A2 A2 B-G:||
|:"Am"A2 a2 a2 g-e|"D"d2 ef "G"ge a2|"Am"A2 a2 a2 g-e|"G"dg ed BA GB|
"Am"A2 a2 a2 g-e|"G"d2 ef ge a2|"Em(C)"eg ed "(G)"(e/f/g) e-d|"Am"B2 A2 A2 B-G:||

